<?xml version="1.0" encoding="UTF-8"?>
<map version="1.10" tiledversion="1.11.2" orientation="orthogonal" renderorder="right-down" width="12" height="12" tilewidth="85" tileheight="85" infinite="0" nextlayerid="4" nextobjectid="27">
 <layer id="1" name="Calque de Tuiles 1" width="12" height="12">
  <data encoding="csv">
0,0,0,0,0,0,0,0,0,0,0,0,
0,0,0,0,0,0,0,0,0,0,0,0,
0,0,0,0,0,0,0,0,0,0,0,0,
0,0,0,0,0,0,0,0,0,0,0,0,
0,0,0,0,0,0,0,0,0,0,0,0,
0,0,0,0,0,0,0,0,0,0,0,0,
0,0,0,0,0,0,0,0,0,0,0,0,
0,0,0,0,0,0,0,0,0,0,0,0,
0,0,0,0,0,0,0,0,0,0,0,0,
0,0,0,0,0,0,0,0,0,0,0,0,
0,0,0,0,0,0,0,0,0,0,0,0,
0,0,0,0,0,0,0,0,0,0,0,0
</data>
 </layer>
 <objectgroup id="2" name="Calque d'Objets 1">
  <object id="8" type="mort" x="1.82599" y="-1.82599" width="1017.08" height="80.3437">
   <polygon points="0,0 1017.08,0 1017.08,80.3437 0,80.3437"/>
  </object>
  <object id="9" type="mort" x="936.735" y="0" width="82.1697" height="1013.43">
   <polygon points="0,0 82.1697,0 82.1697,1013.43 0,1013.43"/>
  </object>
  <object id="10" type="mort" x="5.47798" y="942.213" width="1011.6" height="69.3878">
   <polygon points="0,0 1011.6,0 1011.6,69.3878 0,69.3878"/>
  </object>
  <object id="11" type="mort" x="1.82599" y="0" width="74.8657" height="1009.77">
   <polygon points="0,0 74.8657,0 74.8657,1009.77 0,1009.77"/>
  </object>
  <object id="12" type="mort" x="78.5177" y="78.5177" width="171.643" height="82.1697">
   <polygon points="0,0 171.643,0 171.643,82.1697 0,82.1697"/>
  </object>
  <object id="13" type="mort" x="334.157" y="158.861" width="83.9957" height="169.817">
   <polygon points="0,0 83.9957,0 83.9957,169.817 0,169.817"/>
  </object>
  <object id="14" type="mort" x="78.5177" y="160.687" width="82.1697" height="175.295">
   <polygon points="0,0 82.1697,0 82.1697,175.295 0,175.295"/>
  </object>
  <object id="15" type="mort" x="158.861" y="250.161" width="180.773" height="82.1697">
   <polygon points="0,0 180.773,0 180.773,82.1697 0,82.1697"/>
  </object>
  <object id="16" type="mort" x="507.626" y="69.3878" width="430.934" height="177.121">
   <polygon points="0,0 430.934,0 430.934,177.121 0,177.121"/>
  </object>
  <object id="17" type="mort" x="78.5177" y="341.461" width="776.047" height="162.513">
   <polygon points="0,0 776.047,0 776.047,162.513 0,162.513"/>
  </object>
  <object id="18" type="mort" x="597.1" y="509.452" width="250.161" height="85.8217">
   <polygon points="0,0 250.161,0 250.161,85.8217 0,85.8217"/>
  </object>
  <object id="19" type="mort" x="679.27" y="677.444" width="259.291" height="262.943">
   <polygon points="0,0 259.291,0 259.291,262.943 0,262.943"/>
  </object>
  <object id="20" type="mort" x="82.1697" y="850.913" width="598.926" height="82.1697">
   <polygon points="0,0 598.926,0 598.926,82.1697 0,82.1697"/>
  </object>
  <object id="21" type="mort" x="345.113" y="513.104" width="244.683" height="248.335">
   <polygon points="0,0 244.683,0 244.683,248.335 0,248.335"/>
  </object>
  <object id="22" type="mort" x="74.8657" y="513.104" width="173.469" height="334.157">
   <polygon points="0,0 173.469,0 173.469,334.157 0,334.157"/>
  </object>
  <object id="24" type="départ" x="178.947" y="175.295" width="65.7358" height="63.9098">
   <ellipse/>
  </object>
  <object id="25" type="arrivée" x="261.117" y="520.408" width="67.5618" height="65.7358">
   <ellipse/>
  </object>
  <object id="26" type="vie" x="162.513" y="153.383">
   <polygon points="0,0 83.9957,1.82599 85.8217,-82.1697 343.287,-80.3437 346.939,89.4737 772.395,91.2997 776.047,522.234 518.582,525.886 518.582,699.356 83.9957,699.356 83.9957,352.417 178.947,354.243 178.947,600.752 421.805,600.752 425.456,432.76 686.574,436.412 684.748,186.251 261.117,180.773 262.943,9.12997 178.947,14.6079 175.295,94.9517 -3.65199,96.7777"/>
  </object>
 </objectgroup>
 <imagelayer id="3" name="Calque d'Images 1">
  <image source="../../../../../../Downloads/Image_14_fevr._2026_14_08_01.png" width="1024" height="1024"/>
 </imagelayer>
</map>
